CinemaCameraBeautifiers/bmpcc6k_Beautifier.cube
LUT_3D_SIZE 6
DOMAIN_MIN 0 0 0
DOMAIN_MAX 1 1 1
TITLE bmpcc6k_Beautifier
0 0 0
0.162534 0.01947482 0.01948118
0.3250681 0.03894964 0.03896235
0.4876021 0.05842446 0.05844353
0.6501362 0.07789928 0.07792471
0.8126701 0.0973741 0.09740587
0.008597913 0.1580672 0.01042582
0.1982237 0.1957918 0.003352437
0.3581792 0.2021877 0.03831368
0.5225114 0.2195227 0.05961245
0.6874129 0.2377438 0.07935339
0.851607 0.2567407 0.09915067
0.01719583 0.3161344 0.02085163
0.2074729 0.3696067 0.0190255
0.3964473 0.3915837 0.006704875
0.5650073 0.3914804 0.03946523
0.7163583 0.4043755 0.07662737
0.8800372 0.4211048 0.09919509
0.02579374 0.4742015 0.03127744
0.2261766 0.5186579 0.03558209
0.4031043 0.5732166 0.01686298
0.594671 0.5873755 0.01005731
0.7669711 0.5862786 0.04157134
0.9212127 0.5922191 0.0807007
0.03439165 0.6322687 0.04170326
0.2409728 0.6711521 0.04596567
0.4149458 0.7392135 0.03805101
0.6016765 0.7730609 0.0157718
0.7928946 0.7831673 0.01340975
0.9700016 0.7816414 0.04134029
0.04298956 0.7903358 0.05212907
0.2496594 0.8291723 0.05634204
0.4325692 0.8925315 0.05696674
0.6090993 0.9446644 0.03527667
0.8012637 0.970376 0.01613552
0.9911182 0.9789591 0.01676219
0.01838208 0.01625262 0.1587638
0.1987658 0.006941983 0.2001152
0.3610955 0.04093081 0.2067969
0.5293916 0.06255353 0.2225868
0.6963754 0.0826877 0.2391289
0.8622649 0.1027782 0.2573858
0.002047181 0.1973332 0.1948871
0.2012998 0.1988533 0.1993555
0.4023972 0.2000398 0.2013191
0.6017907 0.2013925 0.2026689
0.801223 0.2032787 0.2042984
0.9934306 0.2077164 0.2100877
-0.005073753 0.3970065 0.1999481
0.200827 0.3977088 0.2000711
0.4024157 0.3976255 0.2019684
0.6029307 0.3982779 0.2034062
0.8033463 0.3992155 0.2049834
0.9941781 0.4030199 0.2136533
-0.007311566 0.5914613 0.2038312
0.2015897 0.5970463 0.2008973
0.4023096 0.5962762 0.2027969
0.6039732 0.5962116 0.2037987
0.8038307 0.5964031 0.2051923
1.003622 0.5973228 0.2081132
-0.005871097 0.7700575 0.2059601
0.202468 0.7955011 0.2027482
0.4020006 0.7955858 0.2029055
0.6038714 0.7947312 0.2043924
0.8032288 0.7935333 0.2071301
0.9965854 0.7914019 0.21531
-0.004293839 0.9477512 0.2058914
0.2007167 0.991236 0.2076159
0.4032253 0.9881778 0.2078628
0.6038839 0.9872237 0.2084876
0.8036737 0.9908503 0.2059045
1.001231 0.9900203 0.2100081
0.03676415 0.03250524 0.3175276
0.2037194 0.01001051 0.3934089
0.3975317 0.01388397 0.4002304
0.5621611 0.05110013 0.4010138
0.722191 0.08186162 0.4135939
0.8898398 0.1044471 0.4283457
0.03851571 0.2024711 0.3539884
0.2014394 0.2003333 0.3981688
0.4038191 0.2014116 0.3988246
0.6046333 0.2023704 0.4009552
0.803985 0.2039773 0.4027376
0.994311 0.2136952 0.4072128
0.004094362 0.3946664 0.3897743
0.2017438 0.3983099 0.3997236
0.4025997 0.3977065 0.398711
0.6042413 0.3989088 0.399991
0.8047943 0.4000797 0.4026382
1.003957 0.4014612 0.4043198
-0.007808922 0.5956441 0.3968378
0.202795 0.5968004 0.3997745
0.4022112 0.596363 0.3985445
0.6038506 0.5968059 0.4009391
0.804353 0.5970927 0.4037513
1.004928 0.5980005 0.4054504
-0.01014751 0.794013 0.3998963
0.2021111 0.7952483 0.4007194
0.4016541 0.7954175 0.4001423
0.6032441 0.7954737 0.4017728
0.8048314 0.795251 0.4039368
1.005457 0.7952755 0.4053192
-0.01403286 0.995837 0.4047921
0.1993795 0.9945133 0.4021646
0.4023287 0.9947053 0.4029477
0.6028733 0.9938629 0.4022595
0.8054475 0.9936714 0.4046241
1.006696 0.9937618 0.4058393
0.05514623 0.04875786 0.4762914
0.2126946 0.02095367 0.5762213
0.4032153 0.0123633 0.5975379
0.5962975 0.02082595 0.6003456
0.7663282 0.05647531 0.5968431
0.9204413 0.09655833 0.606341
0.05819922 0.2183011 0.5201536
0.2026626 0.2017428 0.5987009
0.404179 0.2031632 0.6004596
0.6057211 0.2038682 0.5974292
0.8057023 0.204894 0.6001028
1.005265 0.2072988 0.6027467
0.05039615 0.3931998 0.5456743
0.2030462 0.3992331 0.5976577
0.4023621 0.3992275 0.5999296
0.6045927 0.4001491 0.597392
0.8058761 0.4011283 0.5987788
1.006832 0.4025428 0.6021343
0.006141543 0.5919996 0.5846614
0.2036308 0.5968421 0.5985032
0.4023012 0.5979792 0.5994895
0.6038995 0.5965597 0.5980666
0.8057929 0.5977806 0.5986484
1.007271 0.598654 0.601167
-0.009947394 0.7940881 0.5945761
0.2024845 0.7953777 0.5980193
0.4024251 0.7963105 0.5996751
0.6037515 0.796083 0.598632
0.8053305 0.7963452 0.5993212
1.006307 0.7958267 0.6019995
-0.01314632 0.9928491 0.5962921
0.2002105 0.9931613 0.5987215
0.4039362 0.9946049 0.600691
0.6026461 0.9946422 0.5998977
0.8045464 0.9939476 0.5997906
1.005784 0.9945133 0.6034448
0.0735283 0.06501048 0.6350552
0.2245065 0.03546283 0.7519849
0.4074389 0.02002102 0.7868177
0.6047005 0.01517854 0.7990313
0.7950634 0.02776793 0.8004608
0.9677013 0.06164 0.7965169
0.07716151 0.2346702 0.6825798
0.2045045 0.2043548 0.7949691
0.4040182 0.2056871 0.7992139
0.6056997 0.2067162 0.7994657
0.8071552 0.2072234 0.7969167
1.003119 0.2143495 0.7974423
0.07703141 0.4049422 0.7079768
0.2041473 0.4003417 0.7966521
0.4028787 0.4006666 0.7963376
0.6056177 0.4020351 0.7997831
0.8076383 0.4028232 0.7976492
1.009418 0.403423 0.7985939
0.05289859 0.5858472 0.7435079
0.2049421 0.5978509 0.7980397
0.403163 0.5987967 0.7978162
0.603967 0.5982817 0.8007559
0.8064567 0.5991124 0.7992307
1.007229 0.600168 0.7969515
0.008188725 0.7893328 0.7795486
0.2045964 0.7945721 0.7956062
0.4034875 0.7966199 0.7994471
0.6033885 0.7975745 0.799417
0.8051994 0.7954131 0.7974221
1.006848 0.7965724 0.797738
-0.01082858 0.9924557 0.7918537
0.2001092 0.9939206 0.7965795
0.4041759 0.9952379 0.799056
0.6032693 0.9956452 0.7995544
0.8050272 0.9956936 0.7998627
1.006863 0.9950229 0.7980074
0.09191038 0.0812631 0.7938189
0.2361986 0.04954162 0.9253412
0.4141048 0.02889738 0.9724554
0.6067483 0.02240448 0.9910439
0.8034801 0.02146004 1.000323
0.9938291 0.03470992 1.000576
0.09557285 0.2510044 0.8412973
0.2119254 0.2131411 0.9806487
0.4056055 0.2107561 0.9913134
0.6063514 0.2103952 0.9996853
0.80693 0.2101519 0.9999939
1.006027 0.2137391 0.9974729
0.09723863 0.4203066 0.878064
0.2111603 0.4028658 0.9882266
0.4038272 0.4020908 0.9961825
0.6054197 0.4033414 0.9985602
0.8079613 0.4047015 0.9998174
1.009809 0.4055294 0.9975471
0.09370938 0.5943458 0.8970386
0.2069955 0.5987244 0.9943637
0.4037271 0.5996709 0.9946628
0.604005 0.5996931 0.99739
0.8071305 0.6006886 0.9997725
1.008021 0.6011205 0.9941128
0.05348378 0.7825743 0.9398094
0.2134312 0.7935351 0.9892908
0.4049383 0.7974061 0.9986764
0.6036236 0.7979214 0.9997283
0.8055016 0.7980512 1.000829
1.008538 0.7976487 1.001222
0.0102359 0.9866659 0.9744357
0.2043328 0.9922423 0.9920409
0.4050858 0.9954419 0.9985644
0.6041166 0.9961083 0.9990644
0.8047948 0.997003 0.9992208
1.006499 0.9942663 0.9967775
