CinemaCameraBeautifiers/bmpcc6k_Beautifier.cube
LUT_3D_SIZE 16
DOMAIN_MIN 0 0 0
DOMAIN_MAX 1 1 1
TITLE bmpcc6k_Beautifier
0 0 0
0.05417801 0.006491607 0.006493725
0.108356 0.01298321 0.01298745
0.162534 0.01947482 0.01948118
0.216712 0.02596643 0.0259749
0.2708901 0.03245803 0.03246862
0.3250681 0.03894964 0.03896235
0.3792461 0.04544125 0.04545608
0.4334241 0.05193285 0.0519498
0.4876021 0.05842446 0.05844353
0.5417801 0.06491607 0.06493725
0.5959581 0.07140768 0.07143097
0.6501362 0.07789928 0.07792471
0.7043141 0.08439089 0.08441847
0.7584922 0.0908825 0.09091216
0.8126701 0.0973741 0.09740587
0.002865971 0.05268906 0.003475272
0.06607455 0.06526394 0.001117479
0.1193938 0.06739507 0.01277133
0.1741704 0.07317425 0.01987081
0.2291309 0.07925451 0.02645061
0.2838644 0.08558455 0.03304989
0.3397926 0.09132917 0.03893114
0.3967438 0.09651307 0.04411126
0.4536737 0.1016715 0.04931997
0.5087836 0.1078411 0.05553037
0.5639076 0.1139778 0.06175148
0.6192125 0.1199078 0.06784701
0.6749704 0.1253382 0.07361465
0.73072 0.1307686 0.07938124
0.7865008 0.1361649 0.08514904
0.8422759 0.1415614 0.0909161
0.005731942 0.1053781 0.006950543
0.06915687 0.1232031 0.006341744
0.1321491 0.1305279 0.002234958
0.1883374 0.1304916 0.01315534
0.2387876 0.1347901 0.02554267
0.2933435 0.1403707 0.03306481
0.3483409 0.1463485 0.03974162
0.4035258 0.1521773 0.0463039
0.4582617 0.158509 0.05290123
0.5129309 0.1648956 0.05951226
0.5677289 0.1711691 0.06609979
0.6228774 0.1772986 0.07255691
0.6795852 0.1826583 0.07786227
0.7365301 0.1878548 0.08304468
0.7934877 0.1930261 0.08822253
0.8504665 0.1981665 0.09339745
0.008597913 0.1580672 0.01042582
0.07539222 0.172886 0.01186069
0.1343665 0.191074 0.005620789
0.1982237 0.1957918 0.003352437
0.2556562 0.1954271 0.01385698
0.3070709 0.1974064 0.02690023
0.3581792 0.2021877 0.03831368
0.4126171 0.2078635 0.04588198
0.4674626 0.2134572 0.05307128
0.5225114 0.2195227 0.05961245
0.5776557 0.2254159 0.06616841
0.632807 0.2312478 0.07275262
0.6874129 0.2377438 0.07935339
0.7420687 0.2441519 0.0859624
0.7967616 0.2504916 0.09257797
0.851607 0.2567407 0.09915067
0.01146388 0.2107562 0.01390109
0.08033105 0.2237107 0.01532238
0.1383137 0.2464062 0.01268349
0.2005597 0.257686 0.005257397
0.2642982 0.2610558 0.004469917
0.3233331 0.2605481 0.01377996
0.3766749 0.2609833 0.02631067
0.4265776 0.2647445 0.03962979
0.4775753 0.2695803 0.05108533
0.5319071 0.2753216 0.05870416
0.5866869 0.2807414 0.06612962
0.6416196 0.2866559 0.07294
0.6966818 0.292697 0.07948323
0.7518165 0.2986082 0.08603766
0.8070516 0.3043546 0.0926078
0.8619376 0.310508 0.09920259
0.01432985 0.2634453 0.01737636
0.08322436 0.2763864 0.018781
0.144192 0.2975081 0.01898912
0.2030331 0.3148881 0.01175889
0.2670887 0.3234577 0.005378622
0.3303727 0.3263197 0.005587395
0.3906309 0.3257575 0.01388182
0.4439732 0.3259756 0.02699484
0.4949778 0.3275597 0.04068617
0.5461057 0.3320386 0.05237154
0.5969652 0.3369796 0.06385614
0.6512147 0.3427532 0.07152966
0.7059543 0.3482476 0.07894483
0.7607837 0.3536927 0.08627581
0.8157864 0.3598402 0.09280996
0.8708522 0.3658713 0.09935404
0.01719583 0.3161344 0.02085163
0.0860564 0.3290956 0.02227343
0.1507844 0.345772 0.02372137
0.2074729 0.3696067 0.0190255
0.2687329 0.3821481 0.01124158
0.3331624 0.389026 0.006138333
0.3964473 0.3915837 0.006704875
0.4566098 0.3912344 0.01484334
0.5113124 0.3908543 0.02771396
0.5650073 0.3914804 0.03946523
0.6141418 0.3948127 0.05380046
0.6656348 0.3993223 0.06511769
0.7163583 0.4043755 0.07662737
0.7705238 0.4101795 0.08435612
0.8252342 0.4157271 0.09176397
0.8800372 0.4211048 0.09919509
0.0200618 0.3688234 0.0243269
0.08895107 0.3817607 0.02574148
0.1564583 0.395928 0.0271884
0.2129837 0.422295 0.02593993
0.2720591 0.4381913 0.01810021
0.3348797 0.4488155 0.01088941
0.399259 0.4545609 0.00689521
0.4625219 0.4568476 0.007822354
0.5225984 0.4566903 0.01580965
0.578936 0.4559423 0.02775989
0.6323015 0.4564912 0.04014287
0.6835728 0.4579538 0.05366054
0.733649 0.4621579 0.06652673
0.785167 0.4665975 0.07786664
0.8357514 0.4717714 0.08939859
0.8898296 0.4776067 0.09718256
0.02292777 0.4215125 0.02780217
0.09176566 0.4344878 0.02923273
0.1606621 0.4474215 0.03064477
0.2196341 0.4702353 0.03098891
0.2766275 0.4928124 0.02536698
0.3370932 0.5064112 0.01716216
0.4011193 0.515372 0.01051479
0.4653766 0.5200677 0.007651276
0.5285964 0.5221115 0.008939833
0.5885994 0.5221263 0.01677996
0.6466661 0.5210961 0.02755993
0.6996252 0.5214161 0.04084741
0.7533497 0.5219665 0.05262134
0.8017132 0.5248463 0.06798427
0.8531552 0.529489 0.07925958
0.9046899 0.5338792 0.0906158
0.02579374 0.4742015 0.03127744
0.09464898 0.4871681 0.03269887
0.1635201 0.5001187 0.03411979
0.2261766 0.5186579 0.03558209
0.2817312 0.5471346 0.03253657
0.341104 0.5614716 0.02443065
0.4031043 0.5732166 0.01686298
0.4676588 0.5812842 0.01048803
0.5315013 0.5855638 0.008406011
0.594671 0.5873755 0.01005731
0.6546037 0.5875542 0.01775213
0.7144095 0.5862123 0.02737392
0.7669711 0.5862786 0.04157134
0.8206273 0.5870038 0.0532931
0.8721625 0.5883471 0.06663806
0.9212127 0.5922191 0.0807007
0.02865971 0.5268906 0.03475272
0.09757265 0.5398092 0.03616175
0.1664487 0.5527728 0.037562
0.2318173 0.5688134 0.03908967
0.288384 0.5950162 0.03797824
0.3457882 0.6160111 0.03170917
0.4060662 0.6297762 0.02351778
0.4692279 0.6399114 0.01651484
0.5341775 0.6469154 0.01075724
0.5976356 0.6510471 0.009160491
0.6607454 0.6526394 0.01117479
0.7206145 0.6529715 0.01872652
0.7812618 0.6515149 0.02776364
0.8345432 0.6513224 0.04174552
0.8879463 0.6519512 0.05398968
0.9416871 0.6524581 0.06577662
0.03152568 0.5795797 0.03822799
0.1003962 0.5925205 0.03966084
0.169239 0.605486 0.04109775
0.2375885 0.6189549 0.04245634
0.2950954 0.642951 0.04297779
0.3508571 0.6703747 0.03888745
0.4101704 0.6847292 0.03075485
0.4712581 0.6977785 0.02263798
0.535426 0.7065173 0.01614948
0.6002403 0.7124982 0.01151747
0.6637797 0.7164789 0.009971129
0.72682 0.7179034 0.01229227
0.7866364 0.7183615 0.01972753
0.847239 0.7169968 0.02872382
0.9022675 0.7164967 0.04153719
0.9552804 0.7168483 0.05470254
0.03439165 0.6322687 0.04170326
0.1032121 0.6452564 0.04313926
0.1721128 0.6581911 0.04454685
0.2409728 0.6711521 0.04596567
0.3015689 0.6915439 0.04744274
0.3571801 0.719758 0.04495683
0.4149458 0.7392135 0.03805101
0.475077 0.7530971 0.02986196
0.5374658 0.7642962 0.02248316
0.6016765 0.7730609 0.0157718
0.6663247 0.7780519 0.01227667
0.7299435 0.7817845 0.01093176
0.7928946 0.7831673 0.01340975
0.8526821 0.7836906 0.02079317
0.9132196 0.7824687 0.02968668
0.9700016 0.7816414 0.04134029
0.03725761 0.6849578 0.04517857
0.1060694 0.6979533 0.04661733
0.1750228 0.7108608 0.04799003
0.2438154 0.7238413 0.04946865
0.3071879 0.7417205 0.05095165
0.3638171 0.7677506 0.04998075
0.4199954 0.7936003 0.04523577
0.4792474 0.8079767 0.0370742
0.5401199 0.8213069 0.02892398
0.6035906 0.8309904 0.02213919
0.6681616 0.8390926 0.01567769
0.7324136 0.8435969 0.01303359
0.7961109 0.8470808 0.01189885
0.8589691 0.8484312 0.01452732
0.9187456 0.8489744 0.02190712
0.9792072 0.8479277 0.03065216
0.0401236 0.7376468 0.0486538
0.1089216 0.7506541 0.05009318
0.1779021 0.7635214 0.05148296
0.2467408 0.7765189 0.05288754
0.3129165 0.7918559 0.0543768
0.3705641 0.8156876 0.05493363
0.4259674 0.8445901 0.05187986
0.4841035 0.8624157 0.04439285
0.5441181 0.8763826 0.03620042
0.6056762 0.8887627 0.02832272
0.6697594 0.897631 0.02177882
0.7348209 0.9047524 0.01578536
0.798518 0.9091218 0.01379042
0.8622803 0.9123742 0.012866
0.9250437 0.9136952 0.01564471
0.9848111 0.9142546 0.02302171
0.04298956 0.7903358 0.05212907
0.111809 0.8033239 0.05356555
0.1807073 0.8162391 0.05499731
0.2496594 0.8291723 0.05634204
0.3185209 0.8421502 0.05773782
0.3769611 0.8644298 0.05930342
0.4325692 0.8925315 0.05696674
0.489145 0.916813 0.05158288
0.5483452 0.9311979 0.04339821
0.6090993 0.9446644 0.03527667
0.6718323 0.9553702 0.0281039
0.7359786 0.9642116 0.02140797
0.8012637 0.970376 0.01613552
0.8646306 0.9746351 0.01454648
0.9284521 0.9776639 0.01383315
0.9911182 0.9789591 0.01676219
0.006127359 0.00541754 0.05292126
0.06625528 0.002313994 0.06670506
0.1203652 0.0136436 0.06893232
0.1764639 0.02085118 0.07419559
0.2321251 0.02756257 0.07970959
0.2874216 0.03425941 0.08579525
0.3424031 0.0409207 0.09216445
0.3977821 0.04748898 0.09868656
0.4532987 0.05404248 0.1051972
0.5088199 0.06059649 0.1117028
0.5643446 0.06715085 0.1182048
0.6200717 0.07348064 0.1245494
0.6749017 0.07976279 0.1309048
0.7290716 0.08624263 0.1374178
0.7832423 0.09272259 0.1439296
0.8374134 0.09920263 0.1504402
0.0006823937 0.06577773 0.06496238
0.06709994 0.06628442 0.06645186
0.1341324 0.06667995 0.06710637
0.2005969 0.06713084 0.06755626
0.2670743 0.06775958 0.06809942
0.3311435 0.0692388 0.0700292
0.3851536 0.07630569 0.07716459
0.4375165 0.08437411 0.08497404
0.4940578 0.0903153 0.09109807
0.5507441 0.09617815 0.09715626
0.6046895 0.1029008 0.1044946
0.6581672 0.1097478 0.112019
0.7132766 0.1158186 0.1183245
0.7683984 0.1218801 0.1246202
0.8233733 0.1280451 0.1309772
0.8769111 0.1352324 0.1379607
-0.001691251 0.1323355 0.06664939
0.06694234 0.1325696 0.06669037
0.1341386 0.1325418 0.06732275
0.2009769 0.1327593 0.06780209
0.2677821 0.1330718 0.06832778
0.3313927 0.13434 0.07121775
0.3936835 0.1365559 0.07454389
0.4525597 0.1402881 0.0798659
0.5088633 0.1447172 0.08659409
0.564727 0.1498292 0.09318791
0.6206489 0.1548655 0.09976669
0.6762944 0.1602558 0.1063349
0.7314786 0.1662386 0.1128958
0.7866879 0.1721884 0.1194491
0.8406575 0.1788309 0.1266783
0.8939948 0.1858215 0.1342541
-0.002437188 0.1971538 0.06794372
0.06719657 0.1990154 0.06696574
0.1341032 0.1987588 0.06759898
0.2013244 0.1987372 0.06793285
0.2679436 0.198801 0.06839743
0.3345406 0.1991076 0.06937104
0.3975139 0.1996486 0.07284602
0.4561228 0.2019194 0.07946913
0.5139999 0.2049252 0.08608021
0.5705354 0.2091189 0.09286477
0.627237 0.2130667 0.09964959
0.6827499 0.2183176 0.1063842
0.7381862 0.2236324 0.113107
0.7937891 0.2288529 0.1197697
0.8496766 0.2339696 0.1263152
0.9049534 0.2398666 0.1328581
-0.00195703 0.2566858 0.06865334
0.06748933 0.265167 0.0675827
0.1340002 0.2651952 0.06763516
0.2012905 0.2649104 0.06813079
0.2677429 0.2645111 0.06904335
0.3321951 0.2638006 0.07176999
0.3967074 0.2639851 0.07477991
0.45721 0.2649959 0.08005467
0.5169096 0.2670292 0.0856486
0.5746555 0.2697254 0.09271006
0.6323025 0.2730376 0.09929263
0.6886982 0.2774813 0.1060304
0.7452 0.2817693 0.1127643
0.8014191 0.2862981 0.1194985
0.85676 0.2917831 0.1261987
0.9121528 0.2971882 0.1328961
-0.001431278 0.3159171 0.06863046
0.06690559 0.330412 0.06920526
0.1344084 0.3293926 0.06928758
0.2012946 0.3290746 0.06949581
0.2678913 0.3302834 0.06863483
0.3337435 0.3300068 0.07000265
0.3978041 0.3292427 0.07344072
0.4610214 0.328329 0.07863625
0.5193447 0.3299383 0.08547153
0.5791549 0.3312075 0.0912134
0.6363036 0.3343943 0.09846835
0.6936278 0.3373165 0.1057294
0.7506501 0.341037 0.1125539
0.8069788 0.3456085 0.1192628
0.8634046 0.3500367 0.1259688
0.9199126 0.3543424 0.1326729
0.0008878866 0.3701521 0.07127335
0.06973619 0.3831176 0.07270315
0.1370171 0.3895802 0.07293628
0.2015275 0.3920408 0.07199769
0.2680461 0.3939628 0.07052924
0.3345041 0.3956739 0.06910237
0.3997836 0.3955648 0.07080991
0.4634055 0.3945838 0.07519771
0.5251576 0.393346 0.08198993
0.5839151 0.3943014 0.08912987
0.6420611 0.3958397 0.09610921
0.698568 0.3985159 0.1040607
0.7557353 0.4017136 0.111279
0.8130507 0.4046844 0.1185057
0.8690704 0.4089262 0.1258169
0.9253551 0.4135879 0.1325002
0.003731107 0.4228691 0.07474228
0.07260664 0.4358144 0.07616352
0.1407764 0.448056 0.0773928
0.2032806 0.4526189 0.07567994
0.2685585 0.4559548 0.07378881
0.3349144 0.4588776 0.07135402
0.4012111 0.4610194 0.06950092
0.4659011 0.4610478 0.07159063
0.5290996 0.4597895 0.07696055
0.5907814 0.4587585 0.08366791
0.6486034 0.4584421 0.09282532
0.7066284 0.4602263 0.09975196
0.7643871 0.4618827 0.1070132
0.8180222 0.4657868 0.116886
0.8751967 0.4689985 0.1240807
0.9324995 0.4720115 0.1312847
0.006623626 0.4755244 0.07822644
0.07549257 0.4885011 0.07961785
0.1443222 0.5014835 0.08105005
0.2066633 0.5112835 0.08028502
0.2694586 0.5172784 0.07721064
0.3351732 0.5211872 0.07463699
0.4014768 0.5244257 0.07167245
0.4677238 0.5263323 0.07011417
0.5320342 0.5265041 0.07237528
0.5949975 0.5252084 0.07815417
0.6564187 0.5240864 0.08539698
0.7155502 0.5233821 0.0938517
0.7712552 0.5244542 0.1034515
0.8293853 0.526116 0.1103497
0.8838938 0.5291618 0.1197938
0.9374776 0.5330582 0.129709
0.009505995 0.5282166 0.08167824
0.07834391 0.5411712 0.08313353
0.1471947 0.5541545 0.0845385
0.2109883 0.5686027 0.08551761
0.2724494 0.5754777 0.08214848
0.3365285 0.5812171 0.07896793
0.4020332 0.586094 0.07554104
0.4681019 0.5898317 0.0721049
0.5338449 0.5916337 0.07112856
0.5981597 0.5919535 0.07317393
0.6610038 0.5907434 0.07903799
0.7220653 0.5893545 0.08716241
0.7829236 0.5884019 0.09442543
0.8365002 0.5888023 0.1064893
0.8939622 0.590412 0.1140544
0.9518505 0.5921234 0.1211445
0.01237025 0.5809113 0.08514857
0.08120307 0.5938924 0.08657882
0.1501488 0.6067997 0.08796109
0.2157701 0.6226292 0.08947288
0.2758799 0.6338882 0.08703079
0.3379043 0.641673 0.08288642
0.4028822 0.6469821 0.07956227
0.4688334 0.6511952 0.07623008
0.5347624 0.6552071 0.07253152
0.59997 0.6569348 0.07213865
0.6642805 0.6573972 0.07398237
0.7270076 0.6562557 0.07994308
0.7877188 0.6545777 0.08895528
0.8495407 0.6535307 0.09552449
0.9038367 0.6539105 0.1070404
0.9585854 0.6545939 0.1177953
0.01522689 0.6335946 0.0886414
0.08409683 0.6465534 0.09005434
0.1529044 0.6595448 0.09150125
0.221549 0.6727328 0.09287366
0.2807432 0.6900959 0.09301084
0.3414029 0.6988926 0.08841176
0.4044434 0.7064579 0.0841952
0.4692971 0.7128159 0.07998794
0.5353357 0.7168537 0.07651002
0.6014472 0.7205711 0.07294026
0.6660981 0.7222356 0.07314594
0.7303974 0.7228374 0.07479803
0.7930092 0.7217517 0.08086353
0.8535342 0.7199726 0.09029547
0.9151451 0.7188444 0.09729997
0.9711868 0.718945 0.1076306
0.01813457 0.6862458 0.09211184
0.0869901 0.6992208 0.09352286
0.155719 0.7122841 0.09497808
0.2245947 0.725228 0.09640072
0.2854502 0.7453502 0.09792393
0.3451147 0.756487 0.09376258
0.4068301 0.7652663 0.08904944
0.4708484 0.7720753 0.08491995
0.5360122 0.7781112 0.0806456
0.6018862 0.7824816 0.07675996
0.66815 0.7859272 0.07333513
0.7322279 0.7875361 0.07415121
0.7965112 0.7882749 0.07561939
0.8590092 0.787235 0.08179601
0.9195078 0.7855432 0.0911861
0.9807612 0.7841156 0.09909578
0.02103193 0.7389319 0.09555308
0.08982229 0.7519475 0.09699352
0.1586643 0.7648941 0.09845273
0.2274413 0.7779362 0.09987657
0.2910817 0.7955689 0.1013675
0.3498731 0.8127545 0.09981068
0.4102962 0.8224394 0.09463499
0.472479 0.8314417 0.08958728
0.5371898 0.8380089 0.08535295
0.6027093 0.8434025 0.08123362
0.6684729 0.8480869 0.07698669
0.7345384 0.8512682 0.07405591
0.7983593 0.8528367 0.0751549
0.8626229 0.8537104 0.07644461
0.9250081 0.852708 0.08273812
0.9854838 0.8510919 0.09209179
0.02392408 0.7916136 0.09900599
0.09267358 0.8046404 0.1004819
0.1616361 0.817537 0.1018562
0.2304009 0.8305262 0.1033585
0.2968566 0.8456419 0.1048085
0.3548769 0.8685685 0.1057748
0.4144014 0.879056 0.1004605
0.4757554 0.888836 0.09522703
0.5388224 0.89709 0.09032439
0.6036329 0.9038593 0.08573733
0.6691814 0.9091144 0.08150763
0.7350876 0.9136748 0.07719573
0.8006231 0.9165959 0.07509062
0.8644921 0.9181371 0.07615723
0.9287328 0.9191431 0.07727394
0.991006 0.9181728 0.08368743
0.02681181 0.8442914 0.1024686
0.09554064 0.857305 0.1039849
0.1644541 0.8702671 0.10534
0.2333752 0.8831885 0.1067367
0.3022139 0.8961627 0.1081663
0.3608615 0.9182484 0.1097475
0.419146 0.9353275 0.1065197
0.479266 0.9459365 0.1008124
0.5414293 0.95504 0.09572239
0.6051388 0.963088 0.09073855
0.6701646 0.96964 0.08607711
0.7356985 0.9747932 0.08175668
0.8017241 0.9792488 0.07739103
0.866715 0.981919 0.07612071
0.930626 0.9834372 0.07715814
0.9948606 0.9845175 0.07817327
0.01225472 0.01083508 0.1058425
0.06790648 0.003336837 0.1311363
0.1325106 0.004627989 0.1334101
0.187387 0.01703337 0.1336713
0.2407303 0.0272872 0.1378646
0.2966133 0.03481569 0.1427819
0.3529278 0.04170236 0.1483912
0.408756 0.0484233 0.1535616
0.4642503 0.05512514 0.1594192
0.5195583 0.06182187 0.1654917
0.5748433 0.06851882 0.1715905
0.6300255 0.07520375 0.1777798
0.6848063 0.08184141 0.1843289
0.7400525 0.08842497 0.1908575
0.7955643 0.09497796 0.1973731
0.8510794 0.1015313 0.2038852
0.01283857 0.06749035 0.1179961
0.06714646 0.06677776 0.1327229
0.1346064 0.0671372 0.1329416
0.2015445 0.0674568 0.1336517
0.267995 0.06799243 0.1342458
0.331437 0.07123173 0.1357376
0.3920683 0.07549012 0.138346
0.4501395 0.0811534 0.1418432
0.5074558 0.08664659 0.1465933
0.5625086 0.09314581 0.1526328
0.6179259 0.09983636 0.158204
0.6734123 0.106577 0.1640415
0.7293357 0.1132346 0.1701887
0.7852796 0.1198884 0.176317
0.8412408 0.1265391 0.1824299
0.8972159 0.1331872 0.1885301
0.001364787 0.1315555 0.1299248
0.06724791 0.13277 0.1332413
0.1341999 0.1325688 0.1329037
0.2014138 0.1329696 0.1333303
0.2682648 0.1333599 0.1342127
0.3346523 0.1338204 0.1347732
0.4011938 0.1342617 0.1351125
0.4680335 0.1348073 0.1355308
0.5341486 0.1355192 0.1361988
0.5999095 0.1362936 0.1369759
0.662287 0.1384776 0.1400584
0.7180276 0.1444944 0.1464754
0.7703072 0.1526114 0.1543292
0.8225981 0.1607183 0.1621707
0.875033 0.1687482 0.1699481
0.9314568 0.1747503 0.1761215
-0.002602974 0.198548 0.1322793
0.06759834 0.1989335 0.1332582
0.1340704 0.1987877 0.1328482
0.2012835 0.1989353 0.1336463
0.2681177 0.1990309 0.1345837
0.3349759 0.1993335 0.1351501
0.4017601 0.1997338 0.1355265
0.468524 0.2000603 0.1358955
0.5345717 0.200864 0.136676
0.5995738 0.2018293 0.138375
0.6603146 0.2046563 0.1426451
0.7201819 0.2078997 0.1473987
0.7818562 0.2104202 0.1509798
0.8410553 0.2144427 0.1557485
0.8980346 0.2198134 0.1615824
0.9550544 0.2251456 0.1673984
-0.003382502 0.264671 0.1332988
0.06737036 0.2650827 0.1335731
0.1338847 0.2651392 0.1333807
0.2010814 0.2651579 0.1339242
0.2682772 0.2650837 0.1346455
0.3351522 0.2650918 0.1351064
0.4019538 0.2655186 0.1356042
0.4689974 0.2656259 0.1362083
0.5355642 0.2661436 0.1366556
0.6007861 0.2669819 0.1382316
0.6627854 0.2686799 0.1424355
0.7270488 0.2699336 0.1446717
0.787367 0.2731117 0.1490878
0.8462298 0.2768871 0.1544022
0.9051194 0.2805762 0.1597318
0.9620477 0.2842893 0.1664883
-0.004677623 0.3319457 0.1349307
0.06645985 0.3315045 0.1340548
0.1341096 0.3315684 0.1343159
0.2009578 0.3312876 0.1340865
0.2684825 0.3312238 0.1348747
0.3355655 0.3312539 0.1352797
0.4020786 0.3313359 0.1356265
0.4691676 0.3314211 0.1362158
0.5363227 0.3317686 0.1366876
0.6027032 0.3321342 0.1374038
0.6693893 0.3323735 0.1379004
0.7321832 0.3340953 0.1412868
0.7937357 0.3359523 0.1457452
0.8527879 0.3377949 0.1522571
0.9097871 0.3415411 0.1590174
0.9664091 0.3455726 0.1658411
-0.004874376 0.3943075 0.1358874
0.06560055 0.3978403 0.1347996
0.1343931 0.3980308 0.1339315
0.2011647 0.3974935 0.1341135
0.2682064 0.3975175 0.135198
0.3355882 0.397496 0.135556
0.4026488 0.3974744 0.1358657
0.4689015 0.3972086 0.1363007
0.5358871 0.3976021 0.1367949
0.6033791 0.3977255 0.1374358
0.6690813 0.3982152 0.1387421
0.7329418 0.3984462 0.1415763
0.7950277 0.3992972 0.145692
0.8533661 0.4017302 0.1524465
0.9122456 0.4038388 0.1589383
0.9712394 0.4057964 0.165418
-0.004351726 0.4538463 0.136547
0.06444731 0.4650821 0.1362517
0.135276 0.4642507 0.1351492
0.2008903 0.4642578 0.1342574
0.2683274 0.4636885 0.1350551
0.3353906 0.4638275 0.135704
0.4025961 0.4638518 0.1361552
0.4695143 0.4636528 0.1366087
0.5355832 0.4633367 0.1370687
0.6008736 0.4629394 0.1393692
0.6670608 0.4628564 0.1412162
0.7288199 0.4635078 0.1460118
0.7917453 0.4641039 0.1494321
0.855657 0.4643352 0.1522022
0.9144241 0.466683 0.1584887
0.9719304 0.4694759 0.1657037
-0.003914059 0.5133716 0.1373067
0.06392289 0.5293621 0.1370499
0.1349787 0.5303341 0.1351654
0.2012032 0.5307062 0.1346599
0.2680004 0.5303904 0.1352703
0.3354705 0.5299697 0.1358075
0.4025809 0.5298208 0.1362616
0.4694281 0.5297762 0.1365501
0.5354859 0.5290222 0.1380867
0.601367 0.5287087 0.1385788
0.6643903 0.5276012 0.14354
0.7299719 0.5275176 0.1459499
0.7934148 0.5279703 0.1495598
0.8514947 0.5294201 0.1566912
0.9144201 0.5299917 0.1601093
0.9766247 0.5309888 0.163994
-0.00336851 0.5726143 0.1372555
0.06441291 0.5885667 0.1370884
0.1337647 0.5974602 0.1359517
0.201896 0.5968294 0.1352392
0.2680795 0.5957385 0.1363486
0.3352889 0.5946963 0.1370461
0.4023454 0.5948007 0.1369604
0.4691853 0.5951753 0.1367857
0.5361018 0.5953028 0.1367495
0.601429 0.5944375 0.1392328
0.6671327 0.5940289 0.1401485
0.7300016 0.5930755 0.1451831
0.7929112 0.5920677 0.1507434
0.858044 0.592292 0.15318
0.9160351 0.593933 0.1602644
0.9741934 0.5953243 0.1673478
-0.002862557 0.6318341 0.1372609
0.06492973 0.6476809 0.1371673
0.1338112 0.660824 0.1384105
0.2040166 0.6583375 0.1378929
0.2688169 0.6587852 0.1385752
0.3352042 0.6586726 0.138822
0.4025893 0.6581492 0.1389916
0.4692754 0.659403 0.1381252
0.5357825 0.6605668 0.1372697
0.6027659 0.6608258 0.1369623
0.6674871 0.6600136 0.1400053
0.7328848 0.6593102 0.1417636
0.7956081 0.6584854 0.1468814
0.8573294 0.6571543 0.153779
0.9220428 0.6566581 0.1572725
0.9806141 0.658313 0.1638984
-0.001121185 0.6876596 0.1390558
0.06776141 0.7005812 0.1404959
0.13664 0.7135631 0.1418707
0.2076354 0.7171957 0.1420376
0.271792 0.7183344 0.1426232
0.3362012 0.720347 0.1418524
0.4024023 0.7220356 0.1410132
0.4692982 0.723058 0.140055
0.5361881 0.7240992 0.139181
0.6023908 0.7259576 0.1377419
0.6690059 0.7263374 0.1376096
0.7335321 0.7255768 0.1408029
0.7986265 0.7245626 0.1434121
0.8612106 0.723846 0.1486224
0.9228835 0.7226536 0.1554642
0.9849746 0.7212033 0.1620871
0.001775773 0.7403042 0.1425467
0.07067922 0.7532654 0.1439159
0.1394724 0.7662352 0.1454063
0.2086176 0.7780057 0.1466635
0.2740342 0.7791604 0.1458726
0.3375291 0.7822648 0.1448267
0.4030549 0.7840817 0.1439954
0.4697217 0.7853602 0.1431041
0.5360922 0.7879257 0.1410585
0.6026773 0.7895371 0.1397482
0.6690081 0.7913479 0.1382047
0.7350134 0.7918423 0.1384955
0.7995671 0.7911295 0.1416198
0.8644847 0.7899607 0.1447034
0.926811 0.7891676 0.1503954
0.9884484 0.7880909 0.1571858
0.004630835 0.7930139 0.1460104
0.07360332 0.8059152 0.1473694
0.1423184 0.8189757 0.148844
0.2111369 0.8319627 0.1502842
0.2776903 0.8378181 0.1502828
0.3406941 0.8413317 0.1492693
0.4041308 0.845289 0.1472957
0.4700019 0.8479984 0.1458947
0.5363362 0.8503728 0.1441912
0.6029588 0.8527578 0.1420108
0.6692107 0.8549579 0.1402797
0.7356668 0.8567185 0.1386373
0.801066 0.8573155 0.1393564
0.8656614 0.8566322 0.1424106
0.9305934 0.8555226 0.1454308
0.9924976 0.8543919 0.152152
0.007462215 0.8457383 0.1494846
0.0763957 0.8586219 0.1509121
0.1452133 0.8716288 0.152327
0.21401 0.8846375 0.1537672
0.2815527 0.8961121 0.1547856
0.3441295 0.8999639 0.1538018
0.4065612 0.9052379 0.1513599
0.4709228 0.9093887 0.1492239
0.5371169 0.9119097 0.1475776
0.6031449 0.9152741 0.1451538
0.6698288 0.9177552 0.142708
0.7358741 0.9203134 0.1407185
0.8024222 0.9220389 0.1390018
0.8671851 0.9227434 0.1401797
0.9318022 0.9220956 0.1431813
0.9967324 0.9210464 0.1461549
0.01033205 0.8984169 0.1529677
0.07921562 0.9113712 0.15437
0.1481774 0.9242547 0.1557601
0.2170381 0.9372109 0.1571861
0.2858732 0.9502034 0.1586013
0.347917 0.9583458 0.1584047
0.4097393 0.964231 0.1558347
0.4724081 0.969929 0.1528433
0.5379545 0.9733123 0.151031
0.6035888 0.9773989 0.1483117
0.6700436 0.9801232 0.1460592
0.7363727 0.9833387 0.1430017
0.802555 0.9856626 0.1411427
0.8691661 0.9873582 0.1393783
0.9333018 0.988171 0.1410057
0.9979373 0.987554 0.1439619
0.01838208 0.01625262 0.1587638
0.0708982 0.006984557 0.1920737
0.1344051 0.004121101 0.1991794
0.1987658 0.006941983 0.2001152
0.2554427 0.0188251 0.1989477
0.3068138 0.03218611 0.2021137
0.3610955 0.04093081 0.2067969
0.4166255 0.04873918 0.2114957
0.4731114 0.05568111 0.217035
0.5293916 0.06255353 0.2225868
0.5852916 0.0692786 0.2276099
0.6408785 0.07598551 0.2332744
0.6963754 0.0826877 0.2391289
0.751698 0.08938476 0.2451845
0.8069785 0.0960811 0.2512887
