CinemaCameraBeautifiers/bmpcc6k_TransferFunctionRemoved.cube
LUT_3D_SIZE 6
DOMAIN_MIN 0 0 0
DOMAIN_MAX 1 1 1
TITLE bmpcc6k_TransferFunctionRemoved
-0.0002280283 -0.000104228 -0.000262224
0.3505242 0.04001062 0.04860532
0.6926601 0.07901239 0.09664922
1.02531 0.1187835 0.1455104
1.367726 0.1557886 0.192919
1.690403 0.1935985 0.2399545
0.08814262 0.3814681 0.06575983
0.493276 0.3939026 0.07937296
0.859609 0.4055703 0.1290566
1.211533 0.4305218 0.1737362
1.55895 0.4596283 0.2200709
1.895612 0.4919883 0.2639663
0.1754697 0.7623349 0.1324675
0.5788694 0.7916594 0.1321519
0.9788443 0.7887792 0.1584201
1.347279 0.7944964 0.2058817
1.70621 0.8115461 0.2568651
2.047056 0.8364745 0.3031277
0.2638984 1.145349 0.1986999
0.6622944 1.177036 0.2015248
1.071854 1.196516 0.1972759
1.465554 1.187991 0.2351767
1.835412 1.190319 0.2871762
2.187281 1.204553 0.3363919
0.3509651 1.535171 0.2657384
0.7431736 1.574348 0.2673858
1.151978 1.593094 0.2680974
1.56183 1.604755 0.2681006
1.949947 1.590834 0.3172029
2.314131 1.592241 0.3625092
0.4314386 1.911854 0.3320051
0.8282695 1.944353 0.3389329
1.230921 1.970399 0.3383683
1.63926 1.985992 0.3365548
2.046229 1.98805 0.3462856
2.423519 1.978402 0.3897379
0.03707874 0.09485596 0.3320389
0.4214031 0.07308555 0.3979194
0.7893823 0.1176738 0.4154821
1.13764 0.1576935 0.45107
1.478653 0.1976974 0.4917361
1.807325 0.2376135 0.5394035
0.07947017 0.4715389 0.4461752
0.4993498 0.4683705 0.451328
0.9162363 0.4682451 0.4653423
1.324603 0.4676352 0.4785643
1.739032 0.4669847 0.4929988
2.138709 0.4690496 0.5088304
0.1579075 0.8719988 0.5055724
0.5778505 0.8701566 0.5111234
0.9929609 0.8673506 0.5262395
1.402074 0.8678236 0.5392137
1.816971 0.8676667 0.5499926
2.21733 0.8697587 0.5683737
0.2378913 1.273566 0.5653188
0.6552445 1.273021 0.5687013
1.071188 1.272164 0.5851649
1.483042 1.269589 0.5970778
1.894709 1.27053 0.6074769
2.292646 1.272025 0.6258492
0.3178354 1.679271 0.6229839
0.7354531 1.679611 0.6279733
1.154391 1.679108 0.6421244
1.564495 1.678934 0.6542587
1.973974 1.675795 0.6657116
2.376212 1.677036 0.6807243
0.3965921 2.063342 0.682123
0.8143554 2.067059 0.6878811
1.230339 2.0668 0.7010257
1.639752 2.065684 0.7123197
2.049993 2.063911 0.72541
2.44718 2.066408 0.7410801
0.07336599 0.1843938 0.6605124
0.4203652 0.1440116 0.7896081
0.8344989 0.1418464 0.7948782
1.206054 0.1871631 0.8037755
1.55777 0.2318745 0.8278803
1.899736 0.2745848 0.8646353
0.1176371 0.5364338 0.7951823
0.4963984 0.5395603 0.8409879
0.9123426 0.5374152 0.8451019
1.323572 0.5372996 0.8647314
1.736527 0.5368402 0.8766693
2.136337 0.538767 0.8942586
0.1581505 0.9400513 0.8875615
0.5756456 0.9409678 0.8995867
0.9901382 0.9368132 0.9056883
1.403634 0.9366847 0.9187184
1.815351 0.9375669 0.9299591
2.213032 0.9390197 0.9472641
0.2363621 1.344532 0.9446363
0.6532597 1.344785 0.9596816
1.070872 1.341915 0.963321
1.481599 1.340018 0.9750604
1.891227 1.340097 0.9904051
2.296211 1.341734 1.006368
0.3183543 1.747076 1.005074
0.7337875 1.751805 1.017477
1.150694 1.748954 1.020496
1.560925 1.747642 1.035391
1.971734 1.744886 1.047147
2.37485 1.747183 1.062539
0.3949309 2.134813 1.062016
0.8129227 2.137861 1.073844
1.227972 2.135138 1.083554
1.636574 2.135232 1.096314
2.049752 2.134683 1.104494
2.449636 2.134102 1.120304
0.1109704 0.274927 0.9801011
0.4208755 0.2196669 1.163838
0.8312396 0.2143198 1.182769
1.242578 0.2118824 1.18966
1.618634 0.2600591 1.193346
1.969763 0.304381 1.214221
0.1551381 0.6157513 1.131893
0.4940443 0.6091178 1.224022
0.910346 0.6086689 1.236965
1.321383 0.6070406 1.240998
1.734256 0.6067424 1.256186
2.134676 0.6081359 1.277193
0.1913069 1.00125 1.245844
0.5730801 1.011366 1.288193
0.9880738 1.008982 1.293531
1.399919 1.007294 1.299765
1.81103 1.006858 1.316893
2.214226 1.009233 1.329918
0.2352922 1.413301 1.330642
0.6524805 1.415619 1.339749
1.067495 1.414007 1.350823
1.477542 1.409247 1.360795
1.888899 1.408776 1.374765
2.292409 1.410777 1.388293
0.3157611 1.820635 1.386977
0.7324409 1.82172 1.398637
1.14842 1.819009 1.415946
1.559091 1.81605 1.415714
1.968448 1.815135 1.428347
2.36993 1.818315 1.445551
0.3931352 2.207022 1.447119
0.8073162 2.21115 1.457908
1.223277 2.20693 1.473334
1.635323 2.204633 1.475251
2.045915 2.204774 1.492751
2.448713 2.204545 1.509916
0.1460761 0.3661179 1.313045
0.4223174 0.2933219 1.538935
0.8305823 0.2869644 1.560567
1.242276 0.2832817 1.583695
1.652119 0.2831588 1.58384
2.015407 0.3306668 1.594296
0.1940154 0.7004218 1.464383
0.4920512 0.6794807 1.617057
0.9090088 0.6783122 1.62896
1.320693 0.6776643 1.638032
1.729296 0.6762638 1.640198
2.130992 0.6778201 1.662635
0.2350768 1.071333 1.588028
0.5715386 1.082388 1.672698
0.9865666 1.079056 1.68236
1.395838 1.078688 1.69944
1.808593 1.076452 1.699257
2.211764 1.078601 1.717108
0.270279 1.472474 1.696612
0.651318 1.484767 1.733134
1.06544 1.483866 1.744628
1.474944 1.480384 1.752548
1.886848 1.478841 1.758212
2.291632 1.481358 1.779139
0.316888 1.888483 1.778
0.7296295 1.891456 1.792348
1.147991 1.887488 1.799568
1.559476 1.887609 1.811119
1.968311 1.88362 1.817254
2.37025 1.88733 1.829087
0.3925688 2.276031 1.837119
0.8055943 2.280019 1.844574
1.222195 2.277971 1.857475
1.634322 2.276079 1.874429
2.042763 2.275406 1.878361
2.448778 2.274385 1.896037
0.1813498 0.450903 1.6166
0.4269583 0.3625357 1.900306
0.8336291 0.3577108 1.930413
1.241195 0.3512243 1.935775
1.652136 0.3476554 1.94937
2.045855 0.3509252 1.961317
0.2305777 0.7814538 1.779375
0.4911941 0.7438335 1.979257
0.9082635 0.7431356 1.991215
1.319441 0.7424122 2.000783
1.731223 0.7415819 2.011668
2.128101 0.7421722 2.026534
0.2723328 1.143064 1.906377
0.5700145 1.146246 2.035009
0.9849184 1.143841 2.042791
1.395242 1.142748 2.055012
1.808692 1.141811 2.066046
2.211159 1.14251 2.084182
0.3115398 1.532554 2.0157
0.6495238 1.550065 2.097177
1.063114 1.548094 2.108519
1.473933 1.545862 2.115031
1.889365 1.544443 2.125266
2.288179 1.54535 2.137828
0.3417976 1.943243 2.113574
0.7282471 1.956219 2.153413
1.145128 1.953632 2.159014
1.556096 1.952485 2.176559
1.966703 1.94983 2.190462
2.370089 1.952864 2.191275
0.3889409 2.340594 2.198514
0.8084249 2.341534 2.214785
1.221751 2.341508 2.216367
1.629934 2.340202 2.235967
2.046309 2.339581 2.245001
2.447617 2.340987 2.258949
