CinemaCameraBeautifiers/bmpcc6k_TransferFunctionRemoved.cube
LUT_3D_SIZE 16
DOMAIN_MIN 0 0 0
DOMAIN_MAX 1 1 1
TITLE bmpcc6k_TransferFunctionRemoved
-0.0002280283 -0.000104228 -0.000262224
0.1250246 0.01439412 0.0175939
0.2374387 0.02737296 0.03348234
0.3505242 0.04001062 0.04860532
0.4594025 0.05356365 0.06463847
0.5744781 0.06611916 0.08041059
0.6926601 0.07901239 0.09664922
0.8051106 0.09228268 0.1130834
0.9157 0.1056009 0.1294922
1.02531 0.1187835 0.1455104
1.144959 0.1300395 0.1602081
1.252811 0.1423082 0.1756525
1.367726 0.1557886 0.192919
1.480606 0.1689855 0.2093741
1.59343 0.1822167 0.2258797
1.690403 0.1935985 0.2399545
0.03008701 0.1256981 0.0209731
0.1735567 0.1296373 0.02689877
0.2948299 0.1342146 0.04295978
0.4089759 0.1431024 0.05851404
0.5261911 0.1528299 0.07364837
0.6447071 0.1628862 0.08823055
0.7615514 0.1737615 0.1034643
0.8738406 0.1853894 0.119203
0.9937869 0.1967118 0.133712
1.100805 0.2084802 0.1500165
1.222818 0.2180511 0.1625739
1.334271 0.2292303 0.1763323
1.446888 0.2417495 0.1924016
1.56118 0.2534353 0.2063767
1.678116 0.2655721 0.2232357
1.788529 0.2763593 0.2347288
0.05907595 0.2522261 0.04329958
0.2035323 0.262217 0.04363713
0.3345802 0.2605206 0.05289393
0.4556564 0.2630043 0.06986325
0.5740986 0.2693729 0.08532067
0.6950527 0.2771483 0.1008556
0.8133925 0.2864902 0.1172812
0.9295051 0.2966019 0.1319361
1.044077 0.3067395 0.1471012
1.161879 0.3167526 0.162304
1.27744 0.3273571 0.1753371
1.39518 0.3377033 0.1908266
1.50782 0.3490233 0.2067333
1.62164 0.3608109 0.2218409
1.73479 0.3727647 0.2373267
1.835606 0.3835131 0.2515301
0.08814262 0.3814681 0.06575983
0.2312443 0.3926223 0.06636684
0.3665457 0.3976532 0.06575434
0.493276 0.3939026 0.07937296
0.6175118 0.3951206 0.09529408
0.7406896 0.3992968 0.1118336
0.859609 0.4055703 0.1290566
0.9776173 0.4133808 0.1446851
1.093562 0.4218265 0.1613372
1.211533 0.4305218 0.1737362
1.33122 0.4390886 0.1889427
1.443899 0.4498855 0.2043906
1.55895 0.4596283 0.2200709
1.679063 0.4701241 0.2350464
1.794394 0.4808266 0.24956
1.895612 0.4919883 0.2639663
0.1169372 0.5087682 0.08773335
0.2579851 0.5209389 0.08887964
0.3928055 0.5271413 0.08858207
0.5278358 0.5305151 0.08831441
0.6547961 0.5257387 0.1042818
0.7810261 0.5251474 0.1228051
0.9027174 0.5288319 0.1394524
1.02416 0.5336609 0.1558371
1.142155 0.5404413 0.1707837
1.260187 0.5476735 0.1854733
1.380171 0.5550961 0.2010154
1.494645 0.5642304 0.2165683
1.607594 0.5740465 0.2323271
1.725959 0.583682 0.2483902
1.845803 0.5933613 0.2645111
1.945939 0.6037664 0.2787365
0.1466407 0.6344836 0.1103401
0.2875026 0.6473671 0.111471
0.4191119 0.6566339 0.110713
0.55386 0.662339 0.1090415
0.6908314 0.6618314 0.1132288
0.8171377 0.656541 0.1324239
0.9420704 0.6564922 0.1496488
1.065298 0.6589059 0.1669834
1.1858 0.6637325 0.181063
1.306333 0.6689166 0.1964303
1.423106 0.6753687 0.2130214
1.542749 0.6825519 0.2284571
1.662911 0.6905224 0.2441316
1.779928 0.699149 0.2601001
1.8979 0.7083988 0.276978
1.999173 0.7190084 0.2913349
0.1754697 0.7623349 0.1324675
0.3134871 0.777841 0.1320068
0.4448791 0.7851697 0.1331665
0.5788694 0.7916594 0.1321519
0.7172207 0.7952663 0.1318825
0.8533571 0.7927014 0.1404623
0.9788443 0.7887792 0.1584201
1.103264 0.7885059 0.1751125
1.22665 0.7909262 0.1905037
1.347279 0.7944964 0.2058817
1.466942 0.7992955 0.2227636
1.588419 0.8053135 0.2392908
1.70621 0.8115461 0.2568651
1.822819 0.8197092 0.2712951
1.944527 0.8275238 0.2895554
2.047056 0.8364745 0.3031277
0.2048382 0.8898914 0.1543825
0.3437752 0.9041595 0.1555991
0.4737066 0.912651 0.1563609
0.6061659 0.9214849 0.1550903
0.7432424 0.9261939 0.1543757
0.8817491 0.9287573 0.154787
1.014157 0.9250907 0.1685081
1.141084 0.9215294 0.1827824
1.269035 0.9206234 0.1986292
1.387972 0.9220437 0.2173691
1.510835 0.9253529 0.2333959
1.62825 0.9306495 0.250379
1.752876 0.9351077 0.2668859
1.869884 0.9418164 0.2835945
1.991872 0.9484303 0.3008593
2.094994 0.956749 0.3144823
0.2345389 1.017141 0.1763636
0.3727041 1.031336 0.1776146
0.5016344 1.041229 0.1787151
0.6329805 1.049366 0.1783954
0.7694722 1.056066 0.1774811
0.907032 1.059922 0.1785137
1.047111 1.062695 0.1764876
1.176089 1.059139 0.191044
1.302915 1.054621 0.2075348
1.42559 1.053553 0.2263345
1.548289 1.05521 0.2438841
1.672311 1.057416 0.2617729
1.790591 1.062532 0.2770482
1.909352 1.067671 0.2947474
2.035148 1.073312 0.3100353
2.144383 1.080006 0.3281315
0.2638984 1.145349 0.1986999
0.4007215 1.159339 0.2016554
0.5277138 1.171196 0.2008261
0.6622944 1.177036 0.2015248
0.7976825 1.185812 0.2003396
0.9352774 1.192671 0.1978656
1.071854 1.196516 0.1972759
1.210089 1.197159 0.2000767
1.337412 1.19214 0.2177224
1.465554 1.187991 0.2351767
1.589596 1.185881 0.2537435
1.709947 1.188474 0.2698016
1.835412 1.190319 0.2871762
1.955797 1.19415 0.3063151
2.077323 1.199807 0.3225964
2.187281 1.204553 0.3363919
0.2931954 1.273823 0.2213592
0.4323238 1.285531 0.223142
0.5567457 1.29886 0.2249309
0.6865789 1.31137 0.221682
0.823783 1.318095 0.221542
0.9620139 1.324304 0.2198615
1.099693 1.329731 0.2189555
1.234713 1.332132 0.2195794
1.370155 1.331959 0.2255537
1.500853 1.325534 0.2449778
1.626258 1.320872 0.2636773
1.749059 1.320743 0.2798783
1.874618 1.321752 0.2980539
1.997163 1.324797 0.3153521
2.116118 1.327596 0.3325048
2.231545 1.331584 0.344935
0.3221476 1.402768 0.2455348
0.4566703 1.421221 0.2443091
0.585793 1.43047 0.2461217
0.7158548 1.442273 0.2448171
0.8518074 1.449648 0.244477
0.9867203 1.456696 0.2435046
1.122953 1.461335 0.2439722
1.262154 1.465905 0.2426871
1.39782 1.46812 0.243725
1.533485 1.465008 0.2540458
1.661981 1.461011 0.2715723
1.78925 1.455788 0.2906108
1.911038 1.455079 0.3088329
2.032646 1.456346 0.325184
2.159449 1.457172 0.3423733
2.269094 1.461894 0.353455
0.3509651 1.535171 0.2657384
0.4851652 1.552871 0.2662959
0.6145689 1.56225 0.2676053
0.7431736 1.574348 0.2673858
0.8796224 1.578911 0.2697764
1.017059 1.588606 0.267688
1.151978 1.593094 0.2680974
1.288509 1.59744 0.2684326
1.426954 1.600603 0.2677106
1.56183 1.604755 0.2681006
1.696274 1.601124 0.2805734
1.822304 1.595814 0.3000379
1.949947 1.590834 0.3172029
2.075406 1.588295 0.336728
2.199574 1.590086 0.3515663
2.314131 1.592241 0.3625092
0.3804145 1.667081 0.2873856
0.5138208 1.683792 0.2897223
0.6434943 1.692494 0.2929358
0.7718303 1.705038 0.2925375
0.90859 1.712582 0.2915579
1.044489 1.718448 0.2937526
1.178381 1.725806 0.2930546
1.314146 1.73119 0.2923846
1.452101 1.737122 0.2895622
1.592441 1.739431 0.2900196
1.727808 1.741193 0.2929571
1.859225 1.734212 0.3097796
1.982524 1.73134 0.327206
2.107983 1.725566 0.34632
2.241399 1.72471 0.3580527
2.349539 1.727256 0.3735588
0.4103431 1.796161 0.3132758
0.5443407 1.812902 0.3150696
0.6689525 1.827317 0.315883
0.8019807 1.836725 0.3153083
0.938193 1.842858 0.3184244
1.071877 1.851578 0.3172404
1.205911 1.861362 0.3156531
1.3403 1.865888 0.3152647
1.477236 1.871534 0.3149663
1.6183 1.874649 0.3140673
1.755479 1.875693 0.3155416
1.889628 1.876657 0.3177428
2.017019 1.870339 0.3375162
2.144692 1.867273 0.3518284
2.278458 1.863417 0.366964
2.385307 1.863196 0.3821449
0.4314386 1.911854 0.3320051
0.5703497 1.921939 0.3345304
0.6933953 1.939418 0.334721
0.8282695 1.944353 0.3389329
0.9608046 1.95671 0.3367532
1.095532 1.963803 0.3373805
1.230921 1.970399 0.3383683
1.367304 1.975204 0.338071
1.500121 1.982257 0.3378865
1.63926 1.985992 0.3365548
1.777409 1.988931 0.3348412
1.91444 1.990791 0.3352368
2.046229 1.98805 0.3462856
2.180202 1.984661 0.358192
2.311399 1.980271 0.37536
2.423519 1.978402 0.3897379
0.01337507 0.03445284 0.1188514
0.1510156 0.02601178 0.1380172
0.2726039 0.04142248 0.1445657
0.3882686 0.05492161 0.1562027
0.5004801 0.06854352 0.169951
0.617218 0.08099254 0.1838945
0.7335493 0.09441444 0.1994864
0.8440225 0.1079797 0.2150057
0.9576784 0.1214546 0.2303055
1.070186 0.1341876 0.2463618
1.185511 0.1457847 0.2610771
1.293534 0.1583404 0.2764073
1.410508 0.1713787 0.2924761
1.524321 0.1850068 0.3089027
1.637639 0.1982463 0.3234463
1.737923 0.2101417 0.3424317
0.02651945 0.1588822 0.1554106
0.1763522 0.1556423 0.1537534
0.3151592 0.1555115 0.1588756
0.4508573 0.155338 0.1631824
0.5871072 0.1551393 0.1676029
0.7268418 0.1547347 0.1721716
0.8497999 0.1621569 0.182917
0.9599338 0.1752431 0.1987611
1.078228 0.1882949 0.2152561
1.189804 0.2018695 0.2318117
1.299811 0.2150399 0.2479644
1.407339 0.2268364 0.2621809
1.518501 0.2391154 0.276988
1.642412 0.2524462 0.2933222
1.740227 0.2669483 0.3099921
1.860144 0.2788967 0.3272074
0.05318011 0.2918413 0.1738863
0.2027223 0.2901189 0.172249
0.3399325 0.2887981 0.1770065
0.4765734 0.2888851 0.1811719
0.6141403 0.2889901 0.1858921
0.752615 0.2888827 0.1901325
0.8916761 0.2887351 0.1941457
1.025831 0.289425 0.1995756
1.144212 0.2977025 0.2145277
1.262122 0.3074698 0.2303153
1.37693 0.317652 0.2453968
1.496601 0.3260761 0.2588807
1.611271 0.3358932 0.2724422
1.727253 0.3474993 0.2891891
1.840481 0.3586273 0.3038297
1.946045 0.3693496 0.3204566
0.07972497 0.42645 0.1922048
0.2291013 0.4248179 0.1906472
0.3662834 0.4244136 0.1957249
0.5014794 0.4227498 0.1995133
0.6398621 0.4223544 0.2042964
0.7786401 0.4221246 0.2086846
0.9166434 0.4220208 0.2125862
1.055138 0.4216191 0.2173657
1.184449 0.4234592 0.2250245
1.303883 0.4301995 0.2402602
1.424729 0.4370781 0.2548999
1.541188 0.4448216 0.2697734
1.659299 0.4535823 0.2853581
1.779018 0.4627028 0.3006867
1.886574 0.4741041 0.3166547
1.997 0.4835733 0.3328402
0.1060245 0.5590613 0.2108573
0.2554655 0.5573624 0.209661
0.3930209 0.5570225 0.2149592
0.5278819 0.5570322 0.2187321
0.6644735 0.5549749 0.2230358
0.8055503 0.5542751 0.2274439
0.9442176 0.5542907 0.2313821
1.08029 0.5541573 0.2356951
1.216796 0.554471 0.2396232
1.343293 0.5568226 0.2514127
1.467082 0.5608326 0.2650609
1.585705 0.566864 0.2799384
1.703822 0.5747511 0.2968585
1.82347 0.582562 0.312713
1.934208 0.5924932 0.3293261
2.051346 0.6005077 0.3448874
0.1334477 0.6903573 0.2295632
0.2809397 0.690311 0.2282086
0.4180362 0.6901652 0.2332528
0.5531971 0.6899988 0.2371739
0.6926641 0.6890537 0.2418681
0.8307085 0.6873842 0.2456972
0.9694638 0.6872624 0.2500295
1.106426 0.6870703 0.2547501
1.243515 0.6869691 0.2582371
1.380293 0.6868386 0.2625599
1.509091 0.6885993 0.2746184
1.624497 0.6935338 0.2902925
1.750018 0.6981906 0.3064749
1.862967 0.7058877 0.3232534
1.985708 0.7133781 0.3399229
2.094733 0.7214038 0.3558152
0.1592542 0.8249432 0.249054
0.3070294 0.8243604 0.2472304
0.4432588 0.8241556 0.2521574
0.5797547 0.8234601 0.2563818
0.7194352 0.8227954 0.2604951
0.8580634 0.8224354 0.2648257
0.9932663 0.8208485 0.2694466
1.130947 0.8209426 0.2732211
1.270942 0.8203483 0.2776954
1.407036 0.8201003 0.2808958
1.540433 0.8209221 0.2859311
1.6665 0.8229993 0.301039
1.785431 0.8272302 0.3169266
1.909769 0.831581 0.3345225
2.029721 0.837571 0.3503804
2.137856 0.8448156 0.3680014
0.1851285 0.9600311 0.2683248
0.334966 0.9571753 0.2656199
0.4708961 0.9572526 0.271592
0.6073294 0.9571601 0.2755751
0.7451783 0.9569991 0.2796762
0.8834401 0.9567655 0.2839342
1.021672 0.9554573 0.2886918
1.157445 0.9539812 0.292661
1.294524 0.9541438 0.2969308
1.433423 0.954199 0.3005905
1.56865 0.9540253 0.3055559
1.705044 0.9542141 0.3115602
1.827259 0.9566573 0.3281353
1.948712 0.9598371 0.3448431
2.069185 0.9651775 0.3618387
2.186388 0.9709731 0.3794723
0.213043 1.092228 0.2877764
0.3613965 1.090777 0.2857685
0.495939 1.092064 0.2910669
0.632184 1.091548 0.2962995
0.7707501 1.091078 0.3002605
0.9097804 1.090563 0.3047237
1.048529 1.089678 0.3088311
1.185618 1.089784 0.3122057
1.321132 1.088037 0.3170211
1.458454 1.088793 0.3209802
1.593603 1.089306 0.3245676
1.730008 1.088686 0.3292713
1.862529 1.089175 0.3380964
1.990781 1.090599 0.3540624
2.11408 1.09413 0.3727689
2.222288 1.09854 0.3906037
0.2404861 1.224974 0.3078051
0.3855757 1.227026 0.3061172
0.5239414 1.225475 0.3115609
0.6600344 1.225136 0.3158157
0.7969432 1.225699 0.3193748
0.9362345 1.225641 0.3239671
1.074102 1.224497 0.3289888
1.208355 1.2254 0.3327954
1.345001 1.225307 0.3371499
1.483746 1.222788 0.3403718
1.622199 1.222884 0.345292
1.761058 1.22288 0.3492478
1.895986 1.223577 0.353244
2.03036 1.223819 0.3657005
2.149824 1.22496 0.3835714
2.265517 1.227848 0.3992709
0.2666557 1.359528 0.3287703
0.4141236 1.359124 0.3261989
0.5505987 1.358919 0.3317199
0.683225 1.361681 0.3355207
0.8245237 1.359886 0.3397978
0.9621552 1.360533 0.3437277
1.100801 1.359611 0.3488284
1.236361 1.359652 0.352907
1.373031 1.359627 0.357201
1.51105 1.359083 0.3608643
1.64541 1.358478 0.3655477
1.7839 1.358817 0.3690603
1.923742 1.359298 0.3731565
2.062066 1.357337 0.3782908
2.187844 1.35755 0.3934669
2.306425 1.359284 0.4096481
0.2927601 1.495679 0.3483169
0.440425 1.494617 0.345842
0.5750221 1.495882 0.3515679
0.7110102 1.496933 0.3555828
0.8500973 1.496583 0.3601258
0.9907452 1.496204 0.3644812
1.128314 1.495393 0.3691939
1.2621 1.496135 0.3729783
1.39761 1.496573 0.3774913
1.538524 1.495816 0.380945
1.673584 1.495916 0.3858088
1.812372 1.493976 0.3893057
1.950043 1.493772 0.3930513
2.090706 1.493295 0.3974738
2.222505 1.492736 0.4037417
2.337299 1.493781 0.4207352
0.3188938 1.632186 0.3680573
0.4676973 1.629191 0.3660119
0.600919 1.632476 0.3715864
0.7370093 1.632463 0.3760568
0.877433 1.632632 0.3809392
1.018808 1.630523 0.3848899
1.155558 1.631387 0.3894507
1.291072 1.631461 0.3928866
1.429928 1.630787 0.3977256
1.565012 1.632568 0.4014075
1.704695 1.631308 0.4055127
1.83989 1.630172 0.40946
1.973867 1.629695 0.4130099
2.11235 1.628923 0.416852
2.249006 1.630137 0.4217105
2.368606 1.631468 0.4311146
0.3452065 1.769431 0.3883745
0.4942139 1.765888 0.3864491
0.6271206 1.769539 0.3911824
0.7667278 1.768353 0.3963055
0.9037898 1.769191 0.401234
1.045324 1.767519 0.4050761
1.178848 1.769553 0.4091065
1.320342 1.768184 0.4137216
1.45676 1.768037 0.4175921
1.592715 1.768432 0.4218103
1.727456 1.769317 0.425702
1.861969 1.767971 0.429612
2.002962 1.766647 0.4333312
2.134269 1.766 0.4370902
2.279747 1.765207 0.4412948
2.402087 1.766843 0.4487524
0.3716168 1.907294 0.4088567
0.5192356 1.903991 0.4065713
0.6559836 1.9044 0.4119608
0.7904829 1.907838 0.4163183
0.9330121 1.90489 0.4211473
1.071737 1.90533 0.4258682
1.208678 1.905187 0.4298762
1.348951 1.904679 0.4341811
1.482189 1.905719 0.4382026
1.619952 1.904632 0.4418378
1.754172 1.90498 0.4459144
1.892741 1.904249 0.4496776
2.029105 1.903165 0.4533973
2.166069 1.903324 0.4576544
2.306799 1.901393 0.461595
2.429116 1.903249 0.4693495
0.3935384 2.020821 0.4281653
0.5389438 2.022702 0.4254039
0.6772464 2.019864 0.429995
0.8141947 2.021435 0.4348432
0.9531441 2.022245 0.4395763
1.091223 2.022174 0.4441524
1.23101 2.020742 0.447927
1.367797 2.02133 0.4522238
1.505732 2.019648 0.4558985
1.637444 2.020019 0.4598441
1.774125 2.02082 0.4635729
1.912414 2.019149 0.4676363
2.054639 2.017668 0.4719167
2.187785 2.017748 0.475419
2.33202 2.016529 0.4795248
2.452308 2.016849 0.4866481
0.02541083 0.06496777 0.2261205
0.150822 0.0508418 0.27007
0.2873668 0.04975043 0.2680012
0.4102361 0.06509994 0.2709775
0.5280648 0.08013494 0.2796072
0.6477629 0.09252817 0.2905229
0.76383 0.1069962 0.303549
0.8796734 0.1205388 0.3170078
0.9925092 0.1339903 0.3313106
1.105618 0.1465029 0.3452843
1.220385 0.1586706 0.3593368
1.328354 0.1720275 0.3751357
1.448541 0.1847241 0.3896338
1.556623 0.1989668 0.4049121
1.668332 0.2120478 0.4206528
1.775909 0.2240871 0.4383772
0.03962601 0.1805521 0.2687567
0.1759535 0.1800114 0.284878
0.3131372 0.1785692 0.283134
0.4493836 0.1785825 0.2884736
0.5873208 0.1784308 0.2932562
0.7261998 0.1781003 0.2972824
0.8651564 0.1778026 0.3019357
0.989221 0.1861156 0.3102746
1.09899 0.200216 0.3243577
1.215711 0.2140971 0.3378711
1.333085 0.2268236 0.3515469
1.442234 0.2391275 0.3656757
1.555425 0.2520012 0.3799828
1.675537 0.2653384 0.3943296
1.78893 0.2795859 0.4114042
1.891143 0.292662 0.4273041
0.05276699 0.3154397 0.2986347
0.2026944 0.3149347 0.3031547
0.3384365 0.3123746 0.3003931
0.4753781 0.3124821 0.3060251
0.6133497 0.3127338 0.3097901
0.753084 0.3123592 0.3148628
0.8901506 0.3123263 0.3192138
1.027705 0.3122828 0.322863
1.166044 0.3119569 0.3274068
1.301935 0.3119547 0.331381
1.438454 0.3117766 0.3359965
1.568121 0.3136615 0.3407516
1.690755 0.3240322 0.3547592
1.80935 0.3359788 0.3699658
1.913836 0.3504294 0.3871901
2.011469 0.3636994 0.4057014
0.07992046 0.4488512 0.3171176
0.228875 0.4492934 0.3213616
0.3648653 0.4475162 0.3192205
0.5012974 0.4458126 0.3241863
0.6390815 0.4455677 0.3285417
0.7795299 0.4451703 0.3325744
0.9164961 0.4451496 0.3371199
1.053798 0.4450521 0.3420725
1.191298 0.4449065 0.3464755
1.327031 0.4448666 0.3502575
1.463298 0.4444777 0.3540431
1.599709 0.4443173 0.3592142
1.738161 0.4443586 0.3627018
1.874649 0.4449465 0.3671452
1.992423 0.4531915 0.3820405
2.100717 0.4624734 0.3974102
0.1060486 0.5816666 0.3367169
0.2549155 0.5818321 0.3410022
0.3912097 0.5799486 0.3387266
0.5267138 0.5798616 0.3440212
0.6638296 0.578209 0.348712
0.80515 0.5776412 0.3525608
0.9431639 0.5775304 0.3573933
1.080435 0.577369 0.3623465
1.217245 0.5773621 0.3654879
1.353005 0.5770363 0.3705351
1.488467 0.5775272 0.3736158
1.628234 0.5771818 0.3790399
1.765357 0.5770337 0.3828903
1.904119 0.5770813 0.3863238
2.035967 0.5791631 0.3925788
2.150417 0.586345 0.4097658
0.1328343 0.7144836 0.3570062
0.2809429 0.7150663 0.3605812
0.4176086 0.7129484 0.3590675
0.5529957 0.7132929 0.3649505
0.6901669 0.7127864 0.3680612
0.8294039 0.7106516 0.3724502
0.9687775 0.710904 0.3769537
1.104017 0.7107567 0.3811659
1.242794 0.7102088 0.3864476
1.37984 0.7103521 0.3893135
1.517115 0.7098556 0.3946703
1.654405 0.7103527 0.3982904
1.790677 0.7106108 0.4019158
1.927988 0.7104797 0.4071329
2.065448 0.7107228 0.4121135
2.18276 0.7145888 0.4216663
0.1586804 0.8484539 0.3779727
0.3081373 0.8475088 0.3805837
0.4438435 0.846292 0.3788958
0.5790865 0.8469387 0.3836658
0.7161912 0.8464625 0.3891328
0.8566772 0.8461191 0.3933967
0.993517 0.8436823 0.3972995
1.13131 0.8441232 0.4012565
1.267151 0.8439724 0.4051427
1.404176 0.8441868 0.4105694
1.541891 0.8442736 0.4137357
1.676699 0.8444204 0.4179257
1.81332 0.8447252 0.4234587
1.953934 0.8447106 0.4261272
2.096325 0.8445748 0.4302816
2.22064 0.8466477 0.4386823
0.1855105 0.9816783 0.3970253
0.3331953 0.9826847 0.4003166
0.4688565 0.9805148 0.3981721
0.6052399 0.9808962 0.4034643
0.7424763 0.9805337 0.4087104
0.8835359 0.9792635 0.4135384
1.020989 0.9786803 0.4171893
1.156021 0.9779254 0.4205916
1.29542 0.9774265 0.4265485
1.432992 0.9777454 0.4291982
1.566216 0.9780172 0.4346583
1.70397 0.9785939 0.4372945
1.841841 0.977978 0.4423863
1.980002 0.9784752 0.4477216
2.123818 0.9789131 0.4512449
2.244097 0.9804594 0.4596866
0.211448 1.116672 0.4175561
0.360971 1.114599 0.4213879
0.4951816 1.11446 0.4187291
0.6310071 1.114757 0.4239662
0.769981 1.114632 0.4293287
0.9092759 1.113773 0.4332524
1.048114 1.11341 0.4378578
1.183223 1.113219 0.4414696
1.320185 1.112108 0.444719
1.459152 1.111366 0.450262
1.593829 1.112187 0.4533789
1.731284 1.112216 0.4577466
1.868674 1.112759 0.4630928
2.007722 1.113203 0.4660914
2.147395 1.112819 0.4699424
2.26956 1.114588 0.4777166
0.239858 1.24814 0.4365114
0.385118 1.251435 0.4401188
0.522384 1.247719 0.4381
0.6595078 1.248906 0.4441684
0.7963058 1.249011 0.4491659
0.9337929 1.248792 0.4530058
1.075322 1.248219 0.457738
1.209677 1.248289 0.460859
1.344342 1.248643 0.4649513
1.480902 1.247401 0.46986
1.622406 1.246137 0.4731847
1.7623 1.246241 0.4772364
1.901428 1.246656 0.48326
2.034389 1.247468 0.485847
2.172471 1.246866 0.4892637
2.295139 1.249348 0.4972849
0.2653134 1.384479 0.456832
0.4129122 1.384348 0.459707
0.5479681 1.382654 0.4585733
0.6847996 1.384114 0.4623674
0.8245436 1.382675 0.468231
0.9644477 1.382855 0.47304
1.100943 1.383166 0.4762396
1.236508 1.384248 0.4802422
1.372747 1.382764 0.4856606
1.509605 1.383456 0.4879836
1.647797 1.382016 0.4940746
1.786135 1.381371 0.4963408
1.920879 1.381976 0.5007601
2.059304 1.381526 0.5064479
2.201072 1.380991 0.5100766
2.323466 1.382438 0.5181195
0.2909155 1.521559 0.4764208
0.4399942 1.519132 0.4806648
0.57203 1.521486 0.4768157
0.7115188 1.519289 0.483525
0.8494833 1.520343 0.4870966
0.9874384 1.520701 0.4918144
1.126081 1.519202 0.4968346
1.265398 1.519109 0.5010176
1.400705 1.519562 0.5039147
1.535539 1.519899 0.5097619
1.677873 1.519003 0.5121715
1.814566 1.51621 0.5169367
1.949405 1.51667 0.5214199
2.083078 1.517334 0.5239218
2.224634 1.517445 0.5289899
2.347644 1.519525 0.536496
0.3178354 1.657374 0.4955757
0.465662 1.656395 0.498788
0.6013901 1.654386 0.4979829
0.7395965 1.655403 0.5014321
0.877094 1.655712 0.5064974
1.015044 1.656515 0.5112898
1.152333 1.655922 0.5149608
1.289162 1.65573 0.520676
1.427856 1.656045 0.524226
1.566991 1.654772 0.5291499
1.699684 1.655536 0.5319637
1.835567 1.654528 0.5372278
1.974294 1.652633 0.5390446
2.111284 1.652344 0.5438919
2.253165 1.651781 0.5496631
2.375944 1.653241 0.5566447
0.3460087 1.7915 0.5171434
0.4903846 1.794694 0.520281
0.6282803 1.791323 0.517265
0.7629027 1.794169 0.5220743
0.9065209 1.790437 0.5271713
1.040637 1.793781 0.5319511
1.180286 1.7924 0.5349338
1.317044 1.792849 0.5399888
1.453808 1.793188 0.5446053
1.590715 1.791967 0.5476608
1.72875 1.790879 0.5523044
1.867178 1.789797 0.5561904
2.001429 1.790933 0.5590925
2.137604 1.788303 0.563857
2.276778 1.788051 0.5685044
2.399884 1.790539 0.5762883
0.373638 1.92712 0.5357053
0.5172871 1.931993 0.5408956
0.6510076 1.93152 0.5373946
0.7938395 1.928021 0.542541
0.9298667 1.931046 0.5476628
1.071031 1.928437 0.5518195
1.206537 1.930972 0.5555632
1.340921 1.930951 0.5606763
1.480024 1.929147 0.5642429
1.617958 1.9287 0.5681415
1.755548 1.927284 0.572175
1.88975 1.9277 0.5766833
2.023887 1.928833 0.5791706
2.165922 1.926375 0.583931
2.300065 1.925418 0.5886015
2.423683 1.927271 0.5964342
0.3963636 2.042042 0.5540209
0.5417531 2.043962 0.5589704
0.6772221 2.043593 0.5567314
0.8168929 2.043411 0.5600904
0.9558185 2.044644 0.5649381
1.092003 2.04566 0.569337
1.231793 2.043757 0.5747557
1.368262 2.042346 0.5788129
1.504803 2.042675 0.5809584
1.642684 2.042518 0.5870534
1.775988 2.042553 0.5890184
1.913495 2.042263 0.5943928
2.048105 2.04183 0.5980447
2.188457 2.042244 0.6008787
2.327109 2.040911 0.6060921
2.448003 2.041538 0.6134957
0.03707874 0.09485596 0.3320389
0.1505073 0.07494844 0.3960803
0.2871947 0.0737072 0.3993444
0.4214031 0.07308555 0.3979194
0.547629 0.08855598 0.3992043
0.6715978 0.1025448 0.405832
0.7893823 0.1176738 0.4154821
0.9068956 0.1317847 0.4260274
1.020634 0.1459341 0.4384784
1.13764 0.1576935 0.45107
1.251678 0.1703906 0.464216
1.366072 0.1844469 0.478034
1.478653 0.1976974 0.4917361
1.593736 0.211576 0.5077251
1.704805 0.2247427 0.5223845
1.807325 0.2376135 0.5394035
0.05240721 0.2068058 0.3800364
0.1754355 0.2031206 0.4130644
0.3125868 0.2028784 0.4159347
0.4478533 0.2016244 0.4145147
0.5854734 0.2016533 0.4192121
0.726646 0.2014796 0.4236951
0.863776 0.2014298 0.4276482
1.001908 0.2013432 0.4327959
1.122735 0.2105283 0.4406246
1.245938 0.2246056 0.4513501
1.35743 0.2374997 0.4629667
1.474856 0.2502095 0.4735737
1.583468 0.2645088 0.4879632
1.698667 0.2779264 0.5017273
1.823789 0.2919993 0.5165899
1.914988 0.3052327 0.5327996
0.0650488 0.3354121 0.4183271
0.2022501 0.3387741 0.4306151
0.3378459 0.3369989 0.4339505
0.4736624 0.3359753 0.4322612
0.6118238 0.3361223 0.4369325
0.7523474 0.335638 0.442794
0.8906592 0.3353916 0.4475792
1.027705 0.335405 0.4519058
1.164928 0.3354293 0.4550314
1.300081 0.3352819 0.4599993
1.435551 0.3349865 0.4638514
1.574394 0.3348118 0.4688711
1.709983 0.3359765 0.4727291
1.819923 0.3478155 0.4866209
1.936767 0.3614239 0.5006042
2.051208 0.3745975 0.5195332
0.07947017 0.4715389 0.4461752
0.2280541 0.4719226 0.4503279
0.3643847 0.471472 0.4534206
0.4993498 0.4683705 0.451328
0.6378251 0.4684534 0.4578948
0.7788638 0.4678998 0.4611536
0.9162363 0.4682451 0.4653423
1.053424 0.4678235 0.4702028
1.190035 0.4676678 0.4759261
1.324603 0.4676352 0.4785643
1.462358 0.4674191 0.483624
1.601072 0.4673072 0.4872265
1.739032 0.4669847 0.4929988
1.876698 0.4669602 0.4953833
2.014647 0.4672538 0.500599
2.138709 0.4690496 0.5088304
0.1051931 0.605183 0.4668064
0.2544638 0.604881 0.4697997
